X:1
T:Title
%%score { ( 1 4 ) | ( 2 3 ) }
L:1/8
Q:1/4=100
M:6/8
K:Bb
V:1 treble nm="Grand Piano"
V:4 treble 
V:2 bass 
V:3 bass 
V:1
 [B,D][CE][_D=E] [=DF]2 [DB] | [Fd]3 .[DB]3 | [GB][^FA][GB] [Ac][GB][EG] | [DF]6 | EDE A2 G | %5
w: Carrie~B.~Adams * * * *|||||
 [DF]3 .[DB]3 | [=EG][EA][EB] [Ec]2 [Ed] | c6 | FGA [Ge]2 [Ae] | .[Bd]3 .[B,DB]3 | z3 .[Gc]3 | %11
w: ||||||
 [^Fd]3 .[Ac]3 | BBB [_Ac]2 [AB] | [GB] [EG]2- [EG]2 [EB] | A2 E A G2 | [DF]6 | BBB c2 d | %17
w: ||||||
 [Ge] G2- G2 B | F2 F c F2 | [DB]6 |] %20
w: |||
V:2
 [B,,F,][B,,F,][B,,F,] [B,,B,]2 [B,,B,] | [B,,B,]3 .[B,,B,]3 | [E,B,][E,B,][E,B,] [E,B,]2 [E,B,] | %3
 [B,,B,]6 | [F,A,C][F,A,=B,][F,A,C] [F,CE]2 [F,A,E] | [B,,B,]3 .[B,,B,]3 | %6
 [C,B,][C,B,][C,B,] [C,G,]2 [C,B,] | [F,A,F]6 | [F,A,][F,B,F][F,CF] [F,C]2 [F,C] | z2 F .B,,3 | %10
 G,G,G, .[E,B,]2 [E,G,] | [D,A,]3 .[^F,D]3 | [G,DG][G,DG][G,DG][K:bass] [F,D]2 [F,D] | %13
 [E,E] [E,B,]2- [E,B,]2 [C,C] | [F,CE]2 [F,A,C] [F,CE] [F,A,E]2 | [B,,B,]6 | %16
 [B,D_A][B,DA][B,DA] [B,FA]2 [B,=A] | [E,B,] [E,B,E]2- [E,B,E]2 [=E,B,_D] | %18
 [F,B,D]2 [F,B,D] [F,A,E] [F,A,E]2 | [B,,B,]6 |] %20
V:3
 x6 | x6 | x6 | x6 | x6 | x6 | x6 | x6 | x6 | [B,,B,]3 z3 | x6 | x6 | x3[K:bass] x3 | x6 | x6 | %15
 x6 | x6 | x6 | x6 | x6 |] %20
V:4
 x6 | x6 | x6 | x6 | x6 | x6 | x6 | x6 | x6 | x6 | [B,DB][B,DB][B,GB] z A,[G_d] | x6 | x6 | x6 | %14
 x6 | x6 | x6 | x6 | x6 | x6 |] %20

